!!!OTL: Der Schwartenhals
!!!ARE: Europa, Mitteleuropa, Deutschland
!!!SCT: A0421B
!!!YEM: Copyright 1995, estate of Helmut Schaffrath.
**kern
*ICvox
*Ivox
*M4/4
*k[b-e-]
*g:
{4g
=1
4b-
4b-
4cc
4cc
=2
4.dd
8dd
2dd
=3
4r}
{4dd
4ffn
4ee
=4
4dd
4cc
4b-
8a
8g
=5
2a
2g
=6
4r}
{4g
4a
4dd
=7
4dd
8cc
8b-
4a
4g
=8
4.fn
8e
2d
=9
4r}
{4g
4a
4dd
=10
4dd
8cc
8b-
4a
4g
=11
4.fn
8e
2d
=12
4r}
{4a
4b-
4cc
=13
4dd
4cc
4b-
8a
8g
=14
2a
4g}
==
!!!AGN: Romanze, Ballade, Lied, Kriegslied
!! Werlin Hs. 1646 S. 1475.
!!!ONB: ESAC (Essen Associative Code) Database: ALTDEU
!!!AMT: simple quadruple
!!!AIN: vox
!!!EED: Helmut Schaffrath
!!!EEV: 1.0
*-
